X:405
T: Subei youge Chenjiangjun
N: C2022
O: China, Jiangsu Dongtai
S: III, 457]
R: Xiaodiao, Wuge, Huagu diao]
M: 2/4
L: 1/16
K: F
c2g2fgfd | c2g2fgfd | c2G2z2GA | c2AGF4
c2g2fgfd | c2g2fgfd | c2G2z2GA | c2AGF4
c3agfdc | f2f4gf | c2G2z2GA | c3AG4
d3fdcAc | d2d4f2 | g3afgd2 | c2c4A2
G3cA2G2 | F2A2GFD2 | F8

